docs/.gitbook/assets/icon-add-person-16@dark.svg

<svg width="32" height="32" viewBox="0 0 16 16" fill="none" xmlns="http://www.w3.org/2000/svg">
<rect x="0" y="0" width="16" height="16" fill="#181c1f"/>
<path fill-rule="evenodd" clip-rule="evenodd" d="M7.99999 2.5C7.03349 2.5 6.24999 3.2835 6.24999 4.25C6.24999 5.2165 7.03349 6 7.99999 6C8.96649 6 9.74999 5.2165 9.74999 4.25C9.74999 3.2835 8.96649 2.5 7.99999 2.5ZM4.74999 4.25C4.74999 2.45507 6.20506 1 7.99999 1C9.79492 1 11.25 2.45507 11.25 4.25C11.25 6.04493 9.79492 7.5 7.99999 7.5C6.20506 7.5 4.74999 6.04493 4.74999 4.25ZM6.24999 10C4.78386 10 3.1879 10.8904 2.54711 12.5599C2.46228 12.7809 2.50835 12.9783 2.66799 13.1558C2.843 13.3505 3.14844 13.5 3.49891 13.5H7.24999C7.6642 13.5 7.99999 13.8358 7.99999 14.25C7.99999 14.6642 7.6642 15 7.24999 15H3.49891C2.74481 15 2.02635 14.6857 1.55255 14.1587C1.06339 13.6147 0.83574 12.8326 1.14672 12.0224C2.032 9.71593 4.22643 8.5 6.24999 8.5H7.24999C7.6642 8.5 7.99999 8.83579 7.99999 9.25C7.99999 9.66421 7.6642 10 7.24999 10H6.24999ZM12 9C12.4142 9 12.75 9.33579 12.75 9.75V11.25H14.25C14.6642 11.25 15 11.5858 15 12C15 12.4142 14.6642 12.75 14.25 12.75H12.75V14.25C12.75 14.6642 12.4142 15 12 15C11.5858 15 11.25 14.6642 11.25 14.25V12.75H9.74999C9.33578 12.75 8.99999 12.4142 8.99999 12C8.99999 11.5858 9.33578 11.25 9.74999 11.25H11.25V9.75C11.25 9.33579 11.5858 9 12 9Z" fill="#fff"/>
</svg>

<svg xmlns="http://www.w3.org/2000/svg" width="32" height="32" fill="none" viewBox="0 0 16 16"><path fill="#181c1f" d="M0 0h16v16H0z"/><path fill="#fff" fill-rule="evenodd" d="M8 2.5A1.75 1.75 0 1 0 8 6a1.75 1.75 0 0 0 0-3.5M4.75 4.25a3.25 3.25 0 1 1 6.5 0 3.25 3.25 0 0 1-6.5 0M6.25 10c-1.466 0-3.062.89-3.703 2.56-.085.22-.039.418.121.596.175.194.48.344.83.344H7.25a.75.75 0 0 1 0 1.5H3.499c-.754 0-1.473-.314-1.946-.841-.49-.544-.717-1.326-.406-2.137C2.032 9.716 4.227 8.5 6.25 8.5h1a.75.75 0 0 1 0 1.5zM12 9a.75.75 0 0 1 .75.75v1.5h1.5a.75.75 0 0 1 0 1.5h-1.5v1.5a.75.75 0 0 1-1.5 0v-1.5h-1.5a.75.75 0 0 1 0-1.5h1.5v-1.5A.75.75 0 0 1 12 9" clip-rule="evenodd"/></svg>
